svgs/light/charging-station.svg

<svg xmlns="http://www.w3.org/2000/svg" viewBox="0 0 576 512"><!-- Font Awesome Pro 5.15.3 by @fontawesome - https://fontawesome.com License - https://fontawesome.com/license (Commercial License) --><path d="M560 128h-16V80c0-8.84-7.16-16-16-16s-16 7.16-16 16v48h-32V80c0-8.84-7.16-16-16-16s-16 7.16-16 16v48h-16c-8.84 0-16 7.16-16 16v48c0 38.7 27.48 70.97 64 78.39V384c0 17.64-14.34 32-32 32s-32-14.36-32-32v-48c0-44.11-35.88-80-80-80h-16V64c0-35.35-28.65-64-64-64H96C60.65 0 32 28.65 32 64v416H8c-4.42 0-8 3.58-8 8v16c0 4.42 3.58 8 8 8h336c4.42 0 8-3.58 8-8v-16c0-4.42-3.58-8-8-8h-24V288h16c26.47 0 48 21.53 48 48v48c0 35.3 28.72 64 64 64s64-28.7 64-64V270.39c36.52-7.41 64-39.69 64-78.39v-48c0-8.84-7.16-16-16-16zM288 480H64V64c0-17.64 14.36-32 32-32h160c17.64 0 32 14.36 32 32v416zm256-288c0 26.47-21.53 48-48 48s-48-21.53-48-48v-32h96v32zm-304-16h-16.91l15.88-42.38C242.9 123.13 235.13 112 224 112h-80c-6.53 0-12.44 3.98-14.84 10.06l-32 80C92.94 212.59 100.72 224 112 224h19.5l-19.03 76.12c-3.89 15.5 15.22 26.76 26.84 15.19l112-112C261.35 193.24 254.24 176 240 176zm-82.47 75.84l10-39.97C170.06 201.7 162.35 192 152 192h-16.38l19.22-48h46.06l-15.88 42.38c-3.28 8.75 1.46 21.62 16.34 21.62l-43.83 43.84z"/></svg>

<svg xmlns="http://www.w3.org/2000/svg" viewBox="0 0 576 512"><!--! Font Awesome Pro 6.0.0-alpha3 by @fontawesome - https://fontawesome.com License - https://fontawesome.com/license (Commercial License) --><path d="M560 128H544V80C544 71.13 536.9 64 528 64S512 71.13 512 80V128h-32V80C480 71.13 472.9 64 464 64S448 71.13 448 80V128h-16C423.2 128 416 135.2 416 144V192c0 38.75 27.5 71 64 78.38v111.8c0 15.95-10.83 30.8-26.57 33.41C433.4 418.9 416 403.4 416 384v-48C416 291.8 380.2 256 336 256H320V64c0-35.35-28.65-64-64-64H96C60.65 0 32 28.65 32 64v416H16C7.199 480 0 487.2 0 496C0 504.8 7.199 512 16 512h320c8.801 0 16-7.201 16-16c0-8.801-7.199-16-16-16H320V288h16c26.51 0 48 21.49 48 48v45.08c0 33.39 24.3 63.31 57.53 66.6C479.7 451.5 512 421.4 512 384V270.4C548.5 263 576 230.8 576 192V144C576 135.2 568.8 128 560 128zM288 480H64V64c0-17.62 14.38-32 32-32h160c17.62 0 32 14.38 32 32V480zM544 192c0 26.5-21.5 48-48 48S448 218.5 448 192V160h96V192zM224 191.1L150.2 192l24.97-74.94c2.797-8.375-1.734-17.44-10.11-20.25C156.6 94.03 147.6 98.59 144.8 106.9l-32 96C111.2 207.8 112 213.2 115 217.3C118 221.5 122.9 224 128 224h71.73L161.3 313.7c-3.484 8.125 .2813 17.53 8.406 21.03C171.8 335.6 173.9 336 176 336c6.203 0 12.11-3.625 14.7-9.688l48-112c2.125-4.969 1.609-10.62-1.344-15.12C234.4 194.7 229.4 191.1 224 191.1z"/></svg>
